SFASUI/public/images/iconmessage29.svg

<svg width="16" height="16" viewBox="0 0 16 16" fill="none" xmlns="http://www.w3.org/2000/svg">
<path fill-rule="evenodd" clip-rule="evenodd" d="M7.01874 1.52206C7.31826 1.35343 7.6562 1.26484 7.99993 1.26484C8.34367 1.26484 8.6816 1.35343 8.98113 1.52206C9.28065 1.6907 9.53166 1.93369 9.70993 2.22758L9.71185 2.23075L15.3585 11.6574L15.3639 11.6666C15.5386 11.969 15.631 12.3119 15.6319 12.6611C15.6329 13.0104 15.5424 13.3538 15.3695 13.6572C15.1966 13.9605 14.9472 14.2134 14.6462 14.3905C14.3452 14.5676 14.0031 14.6628 13.6539 14.6666L13.6466 14.6667L2.34594 14.6667C1.99674 14.6628 1.65463 14.5676 1.35365 14.3905C1.05266 14.2134 0.803301 13.9605 0.630365 13.6572C0.45743 13.3538 0.36695 13.0104 0.367928 12.6611C0.368906 12.3119 0.461307 11.969 0.635939 11.6666L0.641354 11.6574L6.28992 2.22758C6.46819 1.93368 6.71921 1.6907 7.01874 1.52206ZM7.99993 2.59817C7.88535 2.59817 7.77271 2.6277 7.67287 2.68391C7.57348 2.73987 7.49011 2.82039 7.43074 2.91776L1.78839 12.3372C1.73161 12.4371 1.70158 12.55 1.70126 12.6649C1.70093 12.7813 1.73109 12.8958 1.78874 12.9969C1.84638 13.098 1.9295 13.1823 2.02983 13.2413C2.12928 13.2998 2.2422 13.3315 2.35753 13.3333H13.6423C13.7577 13.3315 13.8706 13.2998 13.97 13.2413C14.0704 13.1823 14.1535 13.098 14.2111 12.9969C14.2688 12.8957 14.2989 12.7813 14.2986 12.6649C14.2983 12.55 14.2683 12.4371 14.2115 12.3373L8.56993 2.91909C8.56966 2.91864 8.5694 2.9182 8.56913 2.91776C8.50975 2.82039 8.42639 2.73987 8.327 2.68391C8.22716 2.6277 8.11451 2.59817 7.99993 2.59817ZM7.99993 5.33333C8.36812 5.33333 8.6666 5.63181 8.6666 6V8.66667C8.6666 9.03486 8.36812 9.33333 7.99993 9.33333C7.63174 9.33333 7.33327 9.03486 7.33327 8.66667V6C7.33327 5.63181 7.63174 5.33333 7.99993 5.33333ZM7.33327 11.3333C7.33327 10.9651 7.63174 10.6667 7.99993 10.6667H8.0066C8.37479 10.6667 8.67327 10.9651 8.67327 11.3333C8.67327 11.7015 8.37479 12 8.0066 12H7.99993C7.63174 12 7.33327 11.7015 7.33327 11.3333Z" fill="#6B7280"/>
</svg>

<svg width="16" height="16" fill="none" xmlns="http://www.w3.org/2000/svg"><path fill-rule="evenodd" clip-rule="evenodd" d="M7.019 1.522a2 2 0 0 1 2.69.706l.003.003 5.646 9.426.006.01a1.998 1.998 0 0 1-1.71 3H2.346a2 2 0 0 1-1.71-3l.005-.01 5.649-9.43a2 2 0 0 1 .729-.705Zm.98 1.076a.667.667 0 0 0-.568.32l-5.643 9.42a.667.667 0 0 0 .57.995h11.284a.667.667 0 0 0 .57-.996L8.57 2.92v-.001a.667.667 0 0 0-.57-.32Zm0 2.735c.37 0 .668.299.668.667v2.667a.667.667 0 0 1-1.334 0V6c0-.368.299-.667.667-.667Zm-.666 6c0-.368.299-.666.667-.666h.007a.667.667 0 1 1 0 1.333H8a.667.667 0 0 1-.667-.667Z" fill="#6B7280"/></svg>
